lib/flags/s/DM.svg

<svg xmlns="http://www.w3.org/2000/svg" fill="none" viewBox="0 0 16 12"><mask id="DM_svg__a" width="16" height="12" x="0" y="0" mask-type="alpha" maskUnits="userSpaceOnUse"><path fill="#fff" d="M0 0H16V12H0z"/></mask><g mask="url(#DM_svg__a)"><path fill="#279E19" fill-rule="evenodd" d="M0 0V12H16V0H0Z" clip-rule="evenodd"/><mask id="DM_svg__b" width="16" height="12" x="0" y="0" mask-type="alpha" maskUnits="userSpaceOnUse"><path fill="#fff" fill-rule="evenodd" d="M0 0V12H16V0H0Z" clip-rule="evenodd"/></mask><g fill-rule="evenodd" clip-rule="evenodd" mask="url(#DM_svg__b)"><path fill="#F7FCFF" d="M8 0H9V7H16V8H9V12H8V8H0V7H8V0Z"/><path fill="#272727" d="M7 0H8V6H16V7H8V12H7V7H0V6H7V0Z"/><path fill="#FECA00" d="M6 0H7V5H16V6H7V12H6V6H0V5H6V0Z"/><path fill="#C51918" d="M8 10C10.2091 10 12 8.20914 12 6C12 3.79086 10.2091 2 8 2C5.79086 2 4 3.79086 4 6C4 8.20914 5.79086 10 8 10Z"/><path fill="#804BFF" d="M7.36296 4.20652C7.36296 4.20652 7.55293 3.59006 7.99424 3.90853C8.68627 4.24938 8.91453 4.64097 9.1817 5.08442C9.44887 5.52788 8.52665 5.2031 8.35461 4.95352C8.18256 4.70393 7.22824 4.623 7.36296 4.41476C7.49768 4.20652 7.36296 4.20652 7.36296 4.20652Z"/><path fill="#A95601" d="M7.20654 7.36279C7.20654 7.36279 6.7367 8.00554 7.20654 8.00554C7.67639 8.00554 9.58124 7.86726 9.35292 7.68417C9.12461 7.50107 7.4323 7.68417 7.4323 7.68417L7.20654 7.36279Z"/><path fill="#804BFF" d="M7.90901 7.34254C7.86029 7.28758 7.00421 5.34497 7.40224 4.94122C7.80027 4.53747 8.03352 4.77472 8.03352 5.38014C8.03352 5.98555 8.05745 7.49213 7.90901 7.34254Z"/><path fill="#279E19" d="M7.85865 7.0273C7.85865 7.0273 7.80924 7.4995 8.05208 8.05073C8.29492 8.60196 8.78541 8.59134 8.78541 8.14017C8.78541 7.68899 9.14339 8.1124 9.28084 8.41351C9.41828 8.71463 9.06234 5.73967 8.55721 5.0741C8.05208 4.40854 7.56471 4.36581 7.71168 4.7959C7.85865 5.226 7.85865 7.0273 7.85865 7.0273Z"/><path fill="#FECA00" d="M7.56366 3.80005C7.56366 3.80005 7.34998 3.93707 7.34998 4.31447 7.34998 4.69188 7.8559 4.19762 7.8559 4.19762L7.56366 3.80005zM7.60915 3.65681 8.04999 3.42505 8.49083 3.65681 8.40664 3.16593 8.76329 2.81829 8.27041 2.74667 8.04999 2.30005 7.82957 2.74667 7.3367 2.81829 7.69335 3.16593 7.60915 3.65681zM7.60915 9.55681 8.04999 9.32504 8.49083 9.55681 8.40664 9.06592 8.76329 8.71828 8.27041 8.64666 8.04999 8.20004 7.82957 8.64666 7.3367 8.71828 7.69335 9.06592 7.60915 9.55681zM10.4091 6.7568 10.4933 6.26592 10.1367 5.91828 10.6296 5.84666 10.85 5.40004 11.0704 5.84666 11.5633 5.91828 11.2066 6.26592 11.2908 6.7568 10.85 6.52504 10.4091 6.7568zM4.70919 6.7568 5.15003 6.52504 5.59087 6.7568 5.50668 6.26592 5.86332 5.91828 5.37045 5.84666 5.15003 5.40004 4.92961 5.84666 4.43674 5.91828 4.79338 6.26592 4.70919 6.7568zM6.23395 4.35104 6.09443 4.82915 5.79981 4.42759 5.30199 4.44265 5.59285 4.03835 5.42469 3.56955 5.89908 3.72124 6.29298 3.41645 6.2953 3.91449 6.7069 4.19492 6.23395 4.35104zM10.3385 8.73007 10.4781 8.25196 10.951 8.09584 10.5394 7.81541 10.5371 7.31736 10.1432 7.62216 9.66879 7.47047 9.83695 7.93927 9.54609 8.34356 10.0439 8.32851 10.3385 8.73007zM10.4089 4.29277 10.2694 4.77088 9.97479 4.36932 9.47697 4.38438 9.76783 3.98008 9.59967 3.51128 10.0741 3.66297 10.468 3.35818 10.4703 3.85622 10.8819 4.13665 10.4089 4.29277zM6.21076 8.87108 6.35028 8.39297 6.82322 8.23685 6.41163 7.95642 6.4093 7.45838 6.01541 7.76317 5.54102 7.61148 5.70917 8.08028 5.41831 8.48458 5.91613 8.46952 6.21076 8.87108z"/></g></g></svg>

<svg xmlns="http://www.w3.org/2000/svg" fill="none" viewBox="0 0 16 12"><mask id="DM_svg__a" width="16" height="12" x="0" y="0" maskUnits="userSpaceOnUse"><path fill="#fff" d="M0 0h16v12H0z"/></mask><g mask="url(#DM_svg__a)"><path fill="#279E19" fill-rule="evenodd" d="M0 0v12h16V0H0z" clip-rule="evenodd"/><mask id="DM_svg__b" width="16" height="12" x="0" y="0" maskUnits="userSpaceOnUse"><path fill="#fff" fill-rule="evenodd" d="M0 0v12h16V0H0z" clip-rule="evenodd"/></mask><g fill-rule="evenodd" clip-rule="evenodd" mask="url(#DM_svg__b)"><path fill="#F7FCFF" d="M8 0h1v7h7v1H9v4H8V8H0V7h8V0z"/><path fill="#272727" d="M7 0h1v6h8v1H8v5H7V7H0V6h7V0z"/><path fill="#FECA00" d="M6 0h1v5h9v1H7v6H6V6H0V5h6V0z"/><path fill="#C51918" d="M8 10a4 4 0 100-8 4 4 0 000 8z"/><path fill="#804BFF" d="M7.363 4.206s.19-.616.631-.298c.692.341.92.733 1.188 1.176.267.444-.655.119-.827-.13-.172-.25-1.127-.331-.992-.54.135-.208 0-.208 0-.208z"/><path fill="#A95601" d="M7.207 7.363s-.47.642 0 .642 2.374-.138 2.146-.32c-.228-.184-1.92 0-1.92 0l-.226-.322z"/><path fill="#804BFF" d="M7.91 7.342c-.05-.054-.906-1.997-.508-2.4.398-.405.632-.167.632.438s.024 2.112-.125 1.962z"/><path fill="#279E19" d="M7.859 7.027s-.05.472.193 1.024c.243.55.734.54.734.09 0-.452.357-.029.495.272.137.302-.219-2.673-.724-3.339-.505-.666-.992-.708-.845-.278.147.43.147 2.231.147 2.231z"/><path fill="#FECA00" d="M7.564 3.8s-.214.137-.214.514c0 .378.506-.116.506-.116L7.564 3.8zm.046-.143l.44-.232.44.232-.083-.491.356-.348-.493-.071-.22-.447-.22.447-.493.071.356.348-.084.49zm0 5.9l.44-.232.44.232-.083-.491.356-.348-.493-.071-.22-.447-.22.447-.493.071.356.348-.084.49zm2.8-2.8l.083-.491-.356-.348.493-.071.22-.447.22.447.493.071-.356.348.084.49-.441-.231-.44.232zm-5.7 0l.44-.232.44.232-.083-.491.356-.348-.493-.071-.22-.447-.22.447-.493.071.356.348-.084.49zM6.233 4.35l-.14.478-.294-.401-.498.015.29-.405-.167-.469.474.152.394-.305.002.498.412.28-.473.157zm4.105 4.379l.14-.478.472-.156-.412-.28-.002-.499-.394.305-.474-.152.168.47-.29.404.497-.016.295.402zm.07-4.437l-.14.478-.294-.402-.498.015.29-.404-.167-.469.474.152.394-.305.002.498.412.28-.473.157zM6.211 8.87l.14-.478.472-.156-.411-.28-.003-.499-.394.305-.474-.152.168.47-.29.404.497-.016.295.402z"/></g></g></svg>
